X: 7
T: The Five Mile Chase
R: reel
M: 4/4
L: 1/8
K: Gmaj
|: G2 (3BAG dGBG|FADA FADA|G2 (3BAG dGBd|egfa gedB |
G2 (3BAG dGBG|FADA FADA|G2 (3BAG dGBd|egfa g2 gf:|
|:gdBd edBd|gabg agef|gdBd edBd|egfa g3f|
gabg efge|dedc BGBd|e3d ed (3Bcd|egfa gedB:|


Tune 458	Setting 13338

